!!!OTL: Schönster Schatz, willst du' s erlauben? (156a), S. 340
!!!id: T0325
**kern
*clefG2
*k[b-]
*F:
{8c
8c
=1
2f
8f
8a
8cc
8a
=2
2g
4g}
=3
{8g
8a
=4
4.b-
8b-
4b-
8cc
8b-
=5
4a
8f
8f
4f}
=6
{8c
8c
=7
2f
8f
8a
8cc
8a
=8
2g
4g}
=9
{8g
8a
=10
4.b-
8b-
4b-
8cc
8b-
=11
4a
8f
8f
4f}
=12
{8f
8dd
=13
4.dd
8ff
8ff
8ee
8ff
8dd
=14
2cc
4a}
=15
{8dd
8dd
=16
4cc
4g
8b-
8a
4g
=17
2f}
4r
=18
{8f
8dd
=19
4.dd
8ff
8ff
8ee
8ff
8dd
=20
2cc
4a}
=21
{8dd
8dd
=22
4cc
4g
8b-
8a
4g
=23
2f}
4r
==
*-
!!!minrhy: 8
!!!meters: 4/4 ]  ZZ[8
!!!cut1: Schönster Schatz, willst du' s erlauben? (156a), S. 340
!!!cut2: 1. Melodie
!!!reg: Luxemburg
!!!trd: Singendes Volk, Esch-Alzette 1937, posth.
!!!rhy1: XX  X__XXXX  X__X_
!!!rhy2: XX  X_.XX_XX  X_XXX_
!!!key: T0325  08  F 4/4 ]  ZZ[8
!!!mod: HEPTATONIK IONISCH]  AMBITUS[11
!!!kad: 21213131
!!!akz: 1122_4431_1122_4431_6+153_541_6+153_541_
!!!fot: 'a__b__a__b__c__d__c__d__
!!!for: 'a__b__a__b__c__d__c__d__
!!!fok: '^a_^d_^a_^d_^a_\__^a_\__
!! PHRAS[AUFTAKTIG]
!!!fkt: historische, Kriegs- und Soldatenlieder, Liebeslied
!!!bem1: StraPen, fff Witry, 10.1.1933;
!!!bem2: (156c)Esch-Alzette, hhh Dominik M&uuml;ller, 1.6.1915
!! THILL, Mathias:
!! PR[33] 2K[5] 2G[5] 3K[8] 3G[3] 4A[5] 4Ü[0] 5A[0] 6K[0] 6G[3]
!! 7K[0] 7G[0] 8A[0] MEHR[0] SI[30] ABS[73] SR[11] SP[19]
!! ST[16] 2k[8] 2g[11] 3k[8] 3g[5] 4d[4] 4ü[0] 5d[0] 6k[0] 6g[0]
!! 7k[0] 7g[0] 8d[0] mehr[0] si[37] dm[-7] sr[19] sp[18]
!! 1F[58] 2F[26] 3F[11] 4F[0] LF[0] 2P[5] 3P[0] 4P[0] TRI[0] DF[4] AB[76]
!! TF[0] U3K[0] U3[0] U4[0] U4Ü[0] U5[5] U6K[0] U6[0] U7K[0] U7[0]
!! N1[16] N2K[0] N2[11] N3K[0] N3[19] N4[14] N4Ü[0] N5[11] N6K[0] N6[14]
!!!n7k: 0] N7[3] O1[8] O2K[0] O2[0] O3K[0] O3[0] HÖ[0
!!!RNB: symbol: &uuml;  = u umlaut (UTF-8: Ã¼)
